X:1
T:Turn Not Away
T:Turn Not Away
T:George Frederick Root, 1896
T:Robert Charles Winthrop (1809-1894)
T:Public Domain Courtesy of the Cyber Hymnal™
C:George Frederick Root, 1896
Z:Public Domain
Z:Courtesy of the Cyber Hymnal™
%%score ( 1 2 ) ( 3 4 )
L:1/8
Q:1/4=102
M:4/4
K:G
V:1 treble 
V:2 treble 
V:3 bass 
V:4 bass 
V:1
 [DB]2 [CA]>[B,G] [DB]2 [B,D]>[B,D] | [CE]2 [Ec]2 [DB]4 | [CA]2 [DB]>[CA] [B,G]2 [CE]>[CE] | %3
w: 1.~Turn not a- way from the|heav’n- ly word,|Spurn not the mes- sage your|
w: 2.~Turn not a- way from the|gen- tle voice,|Hear ye His call, in His|
 D2 [B,G]2 (A2 ^A2) | [DB]2 [CA]>[B,G] [DB]2 [B,D]>[B,D] | [CE]2 [Ec]2 [DB]4 | %6
w: ears have heard, *|But yield your heart to the|Sav- ior’s care,|
w: love re- joice. *|Hap- py are all who His|call o- bey,|
 [Gd]2 [G^c]>[Gd] [Ge]2 [GA]2 | [Fc][Fc][FB][FA] G4 ||"^Refrain" [EG]2 [EF]>E [^DF]2 [DB]2 | %9
w: And in His ser- vice|and His glo- ry share.|Long He has wait- ed,|
w: Bless- èd the feet who|walk His ho- ly way.||
 [EG]2 [EF]>E [^DF]4 | [GB]2 [GA]>G [FA]2 [Fd]2 | [GB]2 [GA]>G [FA]4 | %12
w: long He has striven,|Time af- ter time this|mes- sage He’s given;|
w: |||
 [DB]2 [CA]>[B,G] [DB]2 [B,D]>[B,D] | [CE]2 [Ec]2 [DB]4 | [Gd]2 [G^c]>[Gd] (e2 A2) | %15
w: Hear now and heed it with|heart bowed down,|And o’er the cross *|
w: |||
 [Fc][Fc][FB][FA] G4 |] %16
w: see the gold- en crown.|
w: |
V:2
 x8 | x8 | x8 | D2 D4 x2 | x8 | x8 | x8 | x4 G4 || x7/2 E/ x4 | x7/2 E/ x4 | x7/2 G/ x4 | %11
 x7/2 G/ x4 | x8 | x8 | x4 G4 | x4 G4 |] %16
V:3
 G,2 G,>G, G,2 [G,,G,]>[G,,G,] | [C,G,]2 [C,G,]2 [G,,G,]4 | %2
 [D,F,]2 [D,F,]>[D,F,] [E,G,]2 [C,G,]>[C,G,] | [B,,G,]2 [G,,G,]2 [D,F,]4 | %4
 G,2 G,>G, G,2 [G,,G,]>[G,,G,] | [C,G,]2 [C,G,]2 [G,,G,]4 | %6
 [B,,G,]2 [B,,G,]>[B,,G,] [C,G,]2 [C,A,]2 | [D,A,][D,A,][D,D][D,D] [G,,B,]4 || %8
 [E,B,]2 [E,A,]>[E,G,] [B,,B,]2 [B,,B,]2 | [E,B,]2 [E,A,]>[E,G,] [B,,B,]4 | %10
 [G,D]2 [G,C]>[G,B,] [D,D]2 [D,D]2 | [G,D]2 [G,C]>[G,B,] [D,D]4 | G,2 G,>G, G,2 [G,,G,]>[G,,G,] | %13
 [C,G,]2 [C,G,]2 [G,,G,]4 | [B,,G,]2 [B,,G,]>[B,,G,] (G,2 A,2) | [D,A,][D,A,][D,D][D,C] [G,,B,]4 |] %16
V:4
 G,2 G,>G, G,2 x2 | x8 | x8 | x8 | G,2 G,>G, G,2 x2 | x8 | x8 | x8 || x8 | x8 | x8 | x8 | %12
 G,2 G,>G, G,2 x2 | x8 | x4 C,4 | x8 |] %16

